!!!!SEGMENT: pl-wnifc--13846--100_anonim--piesni-polskie-i-ruskie-ludu-galicyjskiego-100-wciemnym-lasku-ptaszek-spie-wa.krn
!!!cenid: 18xx:3322
!!!COM: Anonim
!!!COM-rismid: pe30004985
!!!CDT:
!!!CNT:
!!!GTL: Pieśni polskie i ruskie ludu galicyjskiego
!!!OTL: 100. Wciemnym lasku ptaszek spie'wa
!!!PDT: 1833
!!!AGN:
!!!SMS-siglum: PL-Wnifc
!!!SMS-shelfmark: 13846
!!!SMS-shelfwork: 100 G
!!!NIFC-rismid: 1001039203
!!!URL-scan: http://repozytorium.nifc.pl/skany/pl-wnifc-nut--13846
!!!ONB-nifc:
!!!OMD: Allegretto.
!!!key: G
**kern	**kern	**kern	**text
*group2	*group2	*group1	*
*part2	*part2	*part1	*part1
*staff3	*staff2	*staff1	*staff1
*I"[Piano]	*I"[Piano]	*I"[Soprano]	*
*Ipiano	*Ipiano	*Isoprn	*
*ICklav	*ICklav	*ICvox	*
*IGacmp	*IGacmp	*IGsolo	*
*clefF4	*clefG2	*clefG2	*
*k[f#]	*k[f#]	*k[f#]	*
*G:	*G:	*G:	*
*M6/8	*M6/8	*M6/8	*
=1-	=1-	=1-	=1-
*	*^	*	*
!	!	!	!LO:TX:b:B:rj:t=E.114.	!
4GG/ 4G/	4b/	4g\	4b\	W cie-
8r	8cc/	8a\	8cc\	-mnym
4GG/ 4G/	4dd/	4b\	4dd\	las-
8r	8cc#X/	8a#X\	8cc#X\	-ku
=2	=2	=2	=2	=2
4GG/ 4G/	4dd/	4b\	4dd\	pta-
8r	8cc#X/	8a#X\	8cc#X\	-szek
*	*v	*v	*	*
4GG/ 4G/	8.b\L 8.dd\	(>8.dd\L	spie'-
.	16g\Jk 16b\	16b\J)	.
8r	8g\ 8b\	8b\	-wa,
!!LO:LB:g=original
=3	=3	=3	=3
4DD/ 4D/	4f#/ 4a/	4a/	tam
8r	8g/ 8b/	8b\	dziew-
4DD/ 4D/	4a\ 4cc\	4cc\	-czy-
8r	8cc\ 8ee\	8ee\	-na
=4	=4	=4	=4
4GG/ 4G/	4b\ 4dd\	4dd\	traw-
8r	8a\ 8cc\	8cc\	-kę
4GG/ 4G/	(>\8.aL 8.cc\	(>8.cc\L	zbie'-
.	16g\K) 16b\	16b\Jk)	.
!	!LO:TX:a:t=|:problem	!	!
8r	8g\J 8b\	8b\	-ra.
!!LO:LB:g=original
=5	=5	=5	=5
4GG/ 4G/	4cc\ 4ee\	4ee\	na-
8r	8cc\ 8ee\	8ee\	-zbie'-
4GG/ 4G/	8.b\L 8.dd\	(>8.dd\L	-ra-
.	16g\K 16b\	16b\Jk)	.
8r	8b\J 8dd\	8dd\	-ła,
=6	=6	=6	=6
4D\	4a\ 4cc\	4cc\	na-
8r	8a\ 8cc\	8cc\	-wią-
4G\	(>8g\L 8b\	8b\L	-za-
.	8b\) 8dd\	8dd\J	.
8r	8b\J 8gg\	8gg\	-ła,
!!LO:LB:g=original
=7	=7	=7	=7
4GG/ 4G/	4cc\ 4ee\	4ee\	na
8r	8cc\ 8ee\	8ee\	Ja-
4GG/ 4G/	(>\8.bL 8.dd\	(>8.dd\L	-sień-
.	16g\K) 16b\	16b\Jk)	.
8r	8b\J 8dd\	8dd\	-ka
=8	=8	=8	=8
4DD/ 4D/	8.a/L 8.cc/	8.cc/L	za-
.	16c/K 16a/	16a/Jk	.
8D\	8A/J 8f#/	8f#/	-wo-
4GG/	4B/ 4g/	4g/	-ła-
8r	8g/	8g/	-ła.
==	==	==	==
*-	*-	*-	*-
!!!system-decoration: g1,[{g2}]
!!!EED: Jędrzej Mróz
!!!ESR: 2021-11-10
!!!RDF**kern: > = above
!!!RDF**kern: < = below
